X: 3413
T: IN THE GARB OF OLD GAUL
Q: "Tempo di marcia."
R: March
%R: march
B: James Kerr "Merry Melodies" v.3 p.46 #413
Z: 2016 John Chambers <jc:trillian.mit.edu>
M: C
L: 1/8
K: C
uG>uG |\
vc2 uc>uc c2e>d | cGEG c2c>d | e2e>e e>fg>f | edcd e2e>f |\
g2g>g g_bag | f2f>f fagf | e>dc>d egfe | d2[dD]>[dD] [d2D2] :|
|: B>A |\
G>AG>A B>cB>c | d>ed>e f2e>d | c>dc>d e>fe>f | g>ag>a _b2(ag) |\
af de/f/ ge cd/e/ | fedc cBAG | A>Bc>d e>fd>e | c2[cE]>[cE] [c2E2] :|

%%sep 1 1 500
%%sep 1 1 500

